!!!SOCIAL_FUNCTION:	chief songs
!!!PDT:	1918

Specific Region: Dakotas, Minnesota, Montana, Nebraska
!!!REG: Dakotas and Montana
!!!LING_GROUP: Siouan
!!!LANG: Tone
!!!OTL@ENG: Song of Sitting Bull (b)
!!!ONM: No. 194
**kern
*Imale
*clefF4
*k[b-e-a-d-g-]
*M2/4
*MM60
8f
8f
16f
8.f
=2
4f
8c
[8d-
=3||
*M3/4
8d-]
8c
16c
8.B-
8B-
8B-
=4||
*M2/4
8c
8c
16d-
8.d-
=5
8.d-
16c
8c
[8d-
=6||
*M3/4
8d-]
8c
8c
8B-
16B-
16F
[8B-
=7
8B-]
8F
8G-
8F
4F
=8||
*M2/4
8B-
8B-
16d-
8.B-
=9
8.B-
16F
8F
[8B-
=10||
*M3/4
8B-]
8F
8F
8F
8F
8F
=11||
*M2/4
2F
=12
2F
=13||
*M3/4
16F
8.c
16c
8.c
8c
8d-
=14||
*M2/4
16d-
8.c
8c
8c
=15
16c
8.c
8c
[8d-
=16
8d-]
8c
16c
8.B-
=17
16B-
8.B-
8F
8B-
=18||
*M3/4
16B-
8.F
16G-
8.F
8F
8F
=19||
*M2/4
8B-
8B-
8d-
16B-
16B-
=20
8B-
8B-
8F
8B-
=21||
*M3/4
16B-
8.F
16G-
8.F
8F
8F
=22||
*M2/4
2F
=23
4F
4r
==
*-
!!!CNT: Native American -- Sioux
!!!MRD: 1911/07//-1914///
!!!OCL: Frances Densmore
!!!YOR1: Teton Sioux Music, Bulletin 61,
!!!YOR2: Bureau of American Ethnology, Smithsonian Institution
!!!PPR: Government Printing Office
!!!PPP: Washington, D.C.
!!!PDT: 1918///
!!!ENC: Craig Stuart Sapp
!!!END: 2002/03/25/
!!!EEV: 2002/03/31/
!!!AGN: Chief Song
!!!MPN@@SIO: Waha'changka-ya'pi
!!!MPN@ENG: Used-as-a-Shield
!!!TXO: Teton Sioux
!!!MLC: Standing Rock Reservation, South Dakota, United States of America
!!!ARL: 45.9/-100.7#
!!!catalog: Catalogue No. 613
!!!PPG: 460
!!!EFL: 199/245
!!!VTS: 4191365746
